svgs/regular/stopwatch.svg

<svg xmlns="http://www.w3.org/2000/svg" viewBox="0 0 448 512"><!--! Font Awesome Pro 6.4.2 by @fontawesome - https://fontawesome.com License - https://fontawesome.com/license (Commercial License) Copyright 2023 Fonticons, Inc. --><path d="M144 24c0-13.3 10.7-24 24-24H280c13.3 0 24 10.7 24 24s-10.7 24-24 24H248V97.4c43.4 5 82.8 23.3 113.8 50.9L391 119c9.4-9.4 24.6-9.4 33.9 0s9.4 24.6 0 33.9l-31 31c24 33.9 38.1 75.3 38.1 120c0 114.9-93.1 208-208 208S16 418.9 16 304C16 197.2 96.4 109.3 200 97.4V48H168c-13.3 0-24-10.7-24-24zm80 440a160 160 0 1 0 0-320 160 160 0 1 0 0 320zm24-248V320c0 13.3-10.7 24-24 24s-24-10.7-24-24V216c0-13.3 10.7-24 24-24s24 10.7 24 24z"/></svg>

<svg xmlns="http://www.w3.org/2000/svg" viewBox="0 0 448 512"><!--! Font Awesome Pro 6.1.1 by @fontawesome - https://fontawesome.com License - https://fontawesome.com/license (Commercial License) Copyright 2022 Fonticons, Inc. --><path d="M248 320C248 333.3 237.3 344 224 344C210.7 344 200 333.3 200 320V216C200 202.7 210.7 192 224 192C237.3 192 248 202.7 248 216V320zM144 24C144 10.75 154.7 0 168 0H280C293.3 0 304 10.75 304 24C304 37.25 293.3 48 280 48H248V97.37C291.4 102.4 330.8 120.7 361.8 148.2L391 119C400.4 109.7 415.6 109.7 424.1 119C434.3 128.4 434.3 143.6 424.1 152.1L393.9 184C417.9 217.9 432 259.3 432 304C432 418.9 338.9 512 224 512C109.1 512 16 418.9 16 304C16 197.2 96.43 109.3 200 97.37V48H168C154.7 48 144 37.25 144 24V24zM224 464C312.4 464 384 392.4 384 304C384 215.6 312.4 144 224 144C135.6 144 64 215.6 64 304C64 392.4 135.6 464 224 464z"/></svg>
